storage/app/icons/phosphoricons/duotone/address-book-tabs-duotone.svg

<svg xmlns="http://www.w3.org/2000/svg" fill="currentColor" viewBox="0 0 256 256"><path d="M48 40a8 8 0 0 0-8 8v160a8 8 0 0 0 8 8h136V40Zm64 104a24 24 0 1 1 24-24 24 24 0 0 1-24 24" opacity=".2"/><path d="M208 32H48a16 16 0 0 0-16 16v160a16 16 0 0 0 16 16h160a16 16 0 0 0 16-16V48a16 16 0 0 0-16-16m-16 72h16v48h-16Zm16-16h-16V48h16ZM48 48h128v160H48Zm160 160h-16v-40h16zm-56.25-42a39.76 39.76 0 0 0-17.19-23.34 32 32 0 1 0-45.12 0A39.84 39.84 0 0 0 72.25 166a8 8 0 0 0 15.5 4c2.64-10.25 13.06-18 24.25-18s21.62 7.73 24.25 18a8 8 0 1 0 15.5-4M96 120a16 16 0 1 1 16 16 16 16 0 0 1-16-16"/></svg>

<svg xmlns="http://www.w3.org/2000/svg" viewBox="0 0 256 256" fill="currentColor"><path d="M48,40a8,8,0,0,0-8,8V208a8,8,0,0,0,8,8H184V40Zm64,104a24,24,0,1,1,24-24A24,24,0,0,1,112,144Z" opacity="0.2"/><path d="M208,32H48A16,16,0,0,0,32,48V208a16,16,0,0,0,16,16H208a16,16,0,0,0,16-16V48A16,16,0,0,0,208,32Zm-16,72h16v48H192Zm16-16H192V48h16ZM48,48H176V208H48ZM208,208H192V168h16v40Zm-56.25-42a39.76,39.76,0,0,0-17.19-23.34,32,32,0,1,0-45.12,0A39.84,39.84,0,0,0,72.25,166a8,8,0,0,0,15.5,4c2.64-10.25,13.06-18,24.25-18s21.62,7.73,24.25,18a8,8,0,1,0,15.5-4ZM96,120a16,16,0,1,1,16,16A16,16,0,0,1,96,120Z"/></svg>
